X: 1050
T: Incy Wincy Spider
B: kids songs
M:4/4
Q: 1/4=100
K:C
V:1 
"C"cc cd  e2ee |"G"dc   de    "C"c4| "C"e2 ef  g2 g2 |   "G" fe    fg  "C"e2 e2 | 
"F"a2 aa "C"g2 g2 | "F"fe fg "C"e2 d2 | "C"cc cd  e2ee |"G"dc   de    "C"c4||
W: 
W: 
W: Incy wincy spider climbed up the water spout
W: Down came the rain and washed poor Incy out.
W: 
W: Out came the sun and dried up all the rain
W: And Incy wincy spider climbed up the spout again
W: 
% abcbook-tune_id 62829c77993eaa8d897011c1


% abcbook-boost 0
% abcbook-tablature 
% abcbook-transpose 0
% abcbook-lastupdated 1653910500569
% abcbook-soundfonts 
% abcbook-repeats 1


